package/converter/svg/regular/omega.svg

<svg xmlns="http://www.w3.org/2000/svg" viewBox="0 0 448 512"><!-- Font Awesome Pro 6.0.0-alpha2 by @fontawesome - https://fontawesome.com License - https://fontawesome.com/license (Commercial License) --><path d="M448 456C448 469.25 437.25 480 424 480H320C306.75 480 296 469.25 296 456V431.5C296 422.75 300.781 414.656 308.469 410.469C364.938 379.5 400 320.312 400 256C400 158.969 321.031 80 224 80S48 158.969 48 256C48 320.312 83.062 379.5 139.531 410.469C147.219 414.656 152 422.75 152 431.5V456C152 469.25 141.25 480 128 480H24C10.75 480 0 469.25 0 456S10.75 432 24 432H85.406C32 389.906 0 325.312 0 256C0 132.5 100.5 32 224 32S448 132.5 448 256C448 325.312 416 389.906 362.594 432H424C437.25 432 448 442.75 448 456Z"/></svg>

<svg xmlns="http://www.w3.org/2000/svg" viewBox="0 0 448 512"><!--! Font Awesome Pro 6.6.0 by @fontawesome - https://fontawesome.com License - https://fontawesome.com/license (Commercial License) Copyright 2024 Fonticons, Inc. --><path d="M224 80C126.8 80 48 158.8 48 256c0 63.7 33.8 119.5 84.6 150.4c11.4 7 19.4 19.6 19.4 34.2c0 21.8-17.6 39.4-39.4 39.4L24 480c-13.3 0-24-10.7-24-24s10.7-24 24-24l61.4 0C33.4 391 0 327.4 0 256C0 132.3 100.3 32 224 32s224 100.3 224 224c0 71.4-33.4 135-85.4 176l61.4 0c13.3 0 24 10.7 24 24s-10.7 24-24 24l-88.6 0c-21.8 0-39.4-17.6-39.4-39.4c0-14.6 8-27.2 19.4-34.2C366.2 375.5 400 319.7 400 256c0-97.2-78.8-176-176-176z"/></svg>
